X:1
T:There Is Glory in My Soul
T:Charles Hutchinson Gabriel
T:There Is Glory in My Soul
T:Public Domain
T:Public Domain
C:Charles Hutchinson Gabriel
Z:Public Domain
%%score ( 1 2 ) ( 3 4 )
L:1/8
M:4/4
K:A
V:1 treble 
V:2 treble 
V:3 bass 
V:4 bass 
V:1
 [CE][CE] | [CA]2 [Ec]2 [CA]2 [CE][CE] | [CA]2 [Ec]2 [FB][FA][EG][DF] | [CE]2 [CA]2 [Ec]2 [Ec]2 | %4
w: 1.~Since I|lost my sins and I|found my Sav- ior, There is|glor- y in my|
w: 2.~Since He|cleansed my heart, gave me|sight for blind- ness, There is|glor- y in my|
w: 3.~Since with|God I’ve walked, hav- ing|sweet com- mun- ion, There is|glor- y in my|
w: 4.~Since I|en- tered Canaan on my|way to Heav- en, There is|glor- y in my|
 [EB]6 [DE][DE] | [CA]2 [Ec]2 [CA]2 [CE][CE] | [CA]2 [Ec]2 [FB][FA][EG][DF] | %7
w: soul! Since by|faith I sought and ob-|tained God’s fa- vor, There is|
w: soul! Since He|touched and healed me in|lov- ing kind- ness There is|
w: soul! Bright- er|grows each day in this|heav’n- ly un- ion, There is|
w: soul! Since the|day my life to the|Lord was giv- en, There is|
 [CE] [Ec]3 [EB]2 [DB]2 | [CA]6 ||"^Refrain" [Ec][Ed] | [Ae]3 [Af] [Ae][Ec][Ec][EB] | %11
w: glor- y in my|soul!|||
w: glor- y in my|soul!|||
w: glor- y in my|soul!|||
w: glor- y in my|soul!|||
 [FA]>[FB] [FA][DF] [CE]2 [CE][CE] | [CA]2 [CA][CA] [Ec]2 [EA][EA] | %13
w: ||
w: ||
w: ||
w: ||
 [EB][EB][^DB][DB] [EB]2 [Ec][E^d] | [Ae]3 [Af] [Ae][Ec][Ec][EB] | [FA]>[FB] [FA][DF] [CE]2 [CE]E | %16
w: |||
w: |||
w: |||
w: |||
 [Ec] [CA]3 [EB]2 [DB]2 | [CA]6 |] %18
w: ||
w: ||
w: ||
w: ||
V:2
 x2 | x8 | x8 | x8 | x8 | x8 | x8 | x8 | x6 || x2 | x8 | x8 | x8 | x8 | x8 | x7 E | x8 | x6 |] %18
V:3
 [A,,A,][A,,A,] | [A,,E,]2 [A,,A,]2 [A,,E,]2 [A,,A,][A,,A,] | %2
w: ~ ~|~ ~ ~ ~ ~|
 [A,,E,]2 [A,,A,]2 [D,A,][D,A,][D,A,][D,A,] | [A,,A,]2 [A,,A,]2 A,2 A,2 | [E,G,]6 [E,G,][E,G,] | %5
w: ~ ~ ~ ~ ~ ~|~ ~ ~ ~|~ ~ ~|
 [A,,E,]2 [A,,A,]2 [A,,E,]2 [A,,A,][A,,A,] | [A,,E,]2 [A,,A,]2 [D,A,][D,A,][D,A,][D,A,] | %7
w: ~ ~ ~ ~ ~|~ ~ ~ ~ ~ ~|
 [E,A,] [E,A,]3 [E,G,]2 [E,G,]2 | [A,,A,]6 || A,[A,B,] | (A, z) D2 [A,C]A,[A,,A,][C,A,] | %11
w: ~ ~ ~ There|is|glor- y,|y, there is glor- y in|
 [D,D]>[D,D] [D,D][D,A,] [A,,A,]2 [A,,A,][A,,A,] | [A,,E,]2 [A,,E,][A,,E,] A,2 [A,C][A,C] | %13
w: Ev- ’ry day bright- er grows, And|I con- quer all my foes;|
 [G,B,][G,B,][F,A,][F,A,] [E,G,]2 A,[A,B,] | (A, z) D2 [A,C]A,[A,,A,][C,A,] | %15
w: is glor- y, glor- y, there is|y in my soul! There is|
 [D,D]>[D,D] [D,D][D,A,] [A,,A,]2 [A,,A,][C,A,] | [E,A,] [E,A,]3 (E,E,)(E,E,) | [A,,A,]6 |] %18
w: in my soul! * * * *|||
V:4
 x2 | x8 | x8 | x4 A,2 A,2 | x8 | x8 | x8 | x8 | x6 || A, x | C3 (A,3 A,) x | x8 | x4 A,2 x2 | %13
w: |||~ ~||||||glor-|my soul! *||There|
 x6 A, x | C3 (A,3 A,) x | x8 | x4 G,2 G,2 | x6 |] %18
w: glor-|glor- y *||||

